src/images/profile.svg

<?xml version="1.0" encoding="UTF-8"?>
<svg width="700pt" height="700pt" version="1.1" viewBox="0 0 700 700" xmlns="http://www.w3.org/2000/svg" xmlns:xlink="http://www.w3.org/1999/xlink">
 <g>
  <path d="m350.03 291.67c-62.191 0-112.79-50.586-112.79-112.77 0-62.184 50.598-112.77 112.79-112.77s112.78 50.586 112.78 112.77c0 62.184-50.586 112.77-112.78 112.77zm0-202.21c-49.328 0-89.453 40.121-89.453 89.438 0 49.312 40.129 89.434 89.453 89.434 49.316 0 89.441-40.121 89.441-89.438 0.003906-49.312-40.125-89.434-89.441-89.434zm117.28 404.05c6.2305-1.6289 9.9688-8.0078 8.3398-14.242l-13.215-50.539c-1.6406-6.2305-8.0078-9.9023-14.242-8.3398-6.2305 1.6289-9.9688 8.0078-8.3398 14.242l13.215 50.539c1.3789 5.2422 6.1055 8.7148 11.281 8.7148 0.97656 0.003907 1.9688-0.125 2.9609-0.375zm-220.38-8.3281 13.211-50.551c1.6289-6.2305-2.1016-12.613-8.3359-14.242-6.2891-1.6055-12.613 2.1172-14.234 8.3398l-13.211 50.551c-1.6289 6.2305 2.1016 12.613 8.3359 14.242 0.99219 0.25 1.9844 0.375 2.957 0.375 5.1836 0.003907 9.9102-3.4727 11.277-8.7148zm309 8.1133c6.1055-2.0273 9.4102-8.6367 7.3711-14.754l-42.555-127.66c-5.9688-17.922-25.453-31.957-44.344-31.957l-252.81-0.003906c-18.895 0-38.371 14.035-44.348 31.957l-42.562 127.66c-2.0391 6.1172 1.2656 12.727 7.3789 14.754 6.125 2.0625 12.719-1.2656 14.762-7.3711l42.559-127.66c2.793-8.375 13.383-16.008 22.211-16.008h252.82c8.8281 0 19.414 7.6328 22.219 16.008l42.555 127.66c1.6289 4.8867 6.1758 7.9766 11.062 7.9766 1.2148 0 2.457-0.19531 3.6875-0.60547z"/>
 </g>
</svg>

<?xml version="1.0" encoding="UTF-8" standalone="no"?>
<!DOCTYPE svg PUBLIC "-//W3C//DTD SVG 1.1//EN" "http://www.w3.org/Graphics/SVG/1.1/DTD/svg11.dtd">
<svg width="100%" height="100%" viewBox="0 0 428 428" version="1.1" xmlns="http://www.w3.org/2000/svg" xmlns:xlink="http://www.w3.org/1999/xlink" xml:space="preserve" xmlns:serif="http://www.serif.com/" style="fill-rule:evenodd;clip-rule:evenodd;stroke-linejoin:round;stroke-miterlimit:2;">
    <g transform="matrix(1,0,0,1,-136.08,-66.13)">
        <path d="M350.03,291.67C287.839,291.67 237.24,241.084 237.24,178.9C237.24,116.716 287.838,66.13 350.03,66.13C412.222,66.13 462.81,116.716 462.81,178.9C462.81,241.084 412.224,291.67 350.03,291.67ZM350.03,89.46C300.702,89.46 260.577,129.581 260.577,178.898C260.577,228.21 300.706,268.332 350.03,268.332C399.346,268.332 439.471,228.211 439.471,178.894C439.475,129.582 399.346,89.46 350.03,89.46ZM467.31,493.51C473.54,491.881 477.279,485.502 475.65,479.268L462.435,428.729C460.794,422.498 454.427,418.827 448.193,420.389C441.962,422.018 438.224,428.397 439.853,434.631L453.068,485.17C454.447,490.412 459.173,493.885 464.349,493.885C465.326,493.889 466.318,493.76 467.31,493.51L467.31,493.51ZM246.93,485.182L260.141,434.631C261.77,428.4 258.039,422.018 251.805,420.389C245.516,418.783 239.192,422.506 237.571,428.729L224.36,479.28C222.731,485.51 226.462,491.893 232.696,493.522C233.688,493.772 234.68,493.897 235.653,493.897C240.837,493.901 245.563,490.424 246.93,485.182ZM555.93,493.295C562.036,491.268 565.34,484.658 563.301,478.541L520.746,350.881C514.777,332.959 495.293,318.924 476.402,318.924L223.592,318.92C204.697,318.92 185.221,332.955 179.244,350.877L136.682,478.537C134.643,484.654 137.948,491.264 144.061,493.291C150.186,495.354 156.78,492.026 158.823,485.92L201.382,358.26C204.175,349.885 214.765,342.252 223.593,342.252L476.413,342.252C485.241,342.252 495.827,349.885 498.632,358.26L541.187,485.92C542.816,490.807 547.363,493.897 552.249,493.897C553.464,493.897 554.706,493.701 555.936,493.291L555.93,493.295Z" style="fill-rule:nonzero;"/>
    </g>
</svg>
